!!!OTL: Die Schnitzelbank (272a), S. 578
!!!id: T0461
**kern
*clefG2
*k[b-e-]
*B-:
{8f
8f
=1
4b-
8a
8g
=2
4f}
4r
=3
{8g
8g
8g
8g
=4
8g
8b-
8b-
8g
=5
4f
8f
8e-
=6
4d}
8r
=7
{8f
=8
4f
8g
8a
=9
4b-}
8r
=10
{8f
=11
4f
8g
8a
=12
4b-}
4r
=13
{4ee-
8ee-
8ee-
=14
4dd
8dd
8dd
=15
4cc
8cc
8cc
=16
4ff}
4r
=17
{4ee-
8ee-
8ee-
=18
4dd
8dd
8dd
=19
4cc
8cc
8cc
=20
4b-}
4r
=21
{4b-
8a
8g
=22
4f
4f
=23
4g
8g
8g
=24
4f}
4r
=25
{4ee-
4ee-
=26
4dd
4dd
=27
4cc
4cc
=28
4b-}
=29
{8b-
8b-
=30
4cc
8a
8a
=31
4b-}
=32
{8b-
8b-
=33
4cc
4a
=34
4b-}
4r
=35
{4ee-
4ee-
=36
4dd
4dd
=37
4cc
4cc
=38
4ff}
4r
=39
{4ee-
4ee-
=40
4dd
4dd
=41
4cc
4cc
=42
4b-}
==
*-
!!!minrhy: 8
!!!meters: 2/4 ]  ZZ[12
!!!cut: Die Schnitzelbank (272a), S. 578
!!!reg: Luxemburg
!!!trd: Singendes Volk, Esch-Alzette, 1937 posth.
!!!rhy1: XX  X_XX  X_0_
!!!rhy2: XXXX  XXXX  X_XX  X_0
!!!key: T0461  08 Bb 2/4 ]  ZZ[12
!!!mod: HEPTATONIK IONISCH]  AMBITUS[10b
!!!kad: -5-31151-511151
!!!akz: 1-5_-6-6-5-3_-51_-51_4325_4321_1-5-6-5_4321_21_21_4325_4321_
!!!fot: 'a__b__c__c__d__dw_e__dw_f__fv_dv_dw_
!!!for: 'a__b__av_av_aw_aw_aw_c__av_cw_cv_c__
!!!fok: '^__^d_/__/__Va_\__\__\__-__-__Va_\__
!! PHRAS[GEMISCHTTAKTIG]
!!!fkt: ???, erz&auml;hlendes Lied
!!!bem1: zwei getrennte Teile;
!!!bem2: Esch-Alzette, hhh Dominik M&uuml;ller, 7.6.1915
!! THILL; Mathias
!! PR[34] 2K[2] 2G[7] 3K[7] 3G[7] 4A[0] 4Ü[0] 5A[0] 6K[0] 6G[0]
!! 7K[2] 7G[0] 8A[2] MEHR[0] SI[27] ABS[56] SR[9] SP[18]
!! ST[18] 2k[7] 2g[21] 3k[2] 3g[2] 4d[0] 4ü[0] 5d[7] 6k[0] 6g[0]
!! 7k[0] 7g[0] 8d[0] mehr[0] si[39] dm[-12] sr[29] sp[11]
!! 1F[7] 2F[71] 3F[19] 4F[0] LF[0] 2P[0] 3P[3] 4P[0] TRI[0] DF[4] AB[59]
!! TF[0] U3K[0] U3[0] U4[0] U4Ü[0] U5[2] U6K[0] U6[0] U7K[0] U7[2]
!! N1[12] N2K[0] N2[9] N3K[0] N3[21] N4[16] N4Ü[0] N5[25] N6K[0] N6[9]
!!!n7k: 0] N7[4] O1[2] O2K[0] O2[0] O3K[0] O3[0] HÖ[0
!!!RNB: symbol: &auml;      = a umlaut  (UTF-8: Å„)
!!!RNB: symbol: &uuml;  = u umlaut (UTF-8: Ã¼)
